webroot/assets/modal/modal-responsive-modal-video.svg

<svg xmlns="http://www.w3.org/2000/svg" width="360" height="640"><path fill="#151515" d="M0 0h360v640H0z" opacity=".5"/><path fill="#151515" d="M16 228h328v185H16z"/><g fill="#fff" transform="translate(148 289)"><circle cx="32" cy="32" r="32" opacity=".25"/><path d="M44 32L24 42V22z"/></g><path fill="none" d="M330 206h14v14h-14z"/><path fill="#fff" d="M338.9 213l2.84-2.84a.9.9 0 0 0 0-1.27l-.63-.64a.9.9 0 0 0-1.25 0L337 211.1l-2.84-2.84a.9.9 0 0 0-1.27 0l-.64.63a.9.9 0 0 0 0 1.26l2.84 2.84-2.84 2.84a.9.9 0 0 0 0 1.27l.63.64a.9.9 0 0 0 1.26 0l2.84-2.84 2.84 2.84a.9.9 0 0 0 1.27 0l.64-.63a.9.9 0 0 0 0-1.25z"/><g opacity=".04"><path fill="#00f" d="M344 0h16v640h-16z"/><path fill="#f00" d="M16 0h328v640H16z"/><path fill="#00f" d="M0 0h16v640H0z"/></g></svg>

<svg xmlns="http://www.w3.org/2000/svg" width="360" height="640" viewBox="0 0 360 640"><defs><style>.a,.b{fill:#151515;}.a{opacity:0.5;}.c,.d{fill:#fff;}.c{opacity:0.25;}.e{fill:none;}.f{opacity:0.04;}.g{fill:blue;}.h{fill:red;}</style></defs><path class="a" d="M0,0H360V640H0Z"/><path class="b" d="M16,228H344V413H16Z"/><g transform="translate(148 289)"><circle class="c" cx="32" cy="32" r="32"/><path class="d" d="M44,32,24,42V22Z"/></g><path class="e" d="M330,206h14v14H330Z"/><path class="d" d="M338.9,213l2.84-2.84a.9.9,0,0,0,0-1.27l-.63-.64a.9.9,0,0,0-1.25,0L337,211.1l-2.84-2.84a.9.9,0,0,0-1.27,0l-.64.63a.9.9,0,0,0,0,1.26l2.84,2.84-2.84,2.84a.9.9,0,0,0,0,1.27l.63.64a.9.9,0,0,0,1.26,0l2.84-2.84,2.84,2.84a.9.9,0,0,0,1.27,0l.64-.63a.9.9,0,0,0,0-1.25Z"/><g class="f"><path class="g" d="M344,0h16V640H344Z"/><path class="h" d="M16,0H344V640H16Z"/><path class="g" d="M0,0H16V640H0Z"/></g></svg>
